X:1
T:Title
%%score { 1 | 2 }
L:1/8
Q:1/4=120
M:2/2
K:E
V:1 treble nm="Grand Piano"
V:2 bass 
V:1
 G4 A3 F | B6 E2 | F2 F2 A3 A | A4 G4 | G4 [E^A]3 [CF] | [B,B]6 [Fd]2 | [Gc]2 [EG]2 [EB]2 [E^A]2 | %7
w: C.~H.~Forrest * *|||||||
 [DB]8 | G4 A3 F | B6 B2 | [Ge]2 [G=d]2 [Gc]2 [G^B]2 | ^B4 c4 | c4 [^EB]3 [EG] | A6 G2 | %14
w: |||||||
 F2 A2 D2 [A,DF]2 | E8 | G2 G>G G2 B>B | B2 A2 A4 | ^A2 A>A A2 c2 | [DB]8 | ^B2 B>B B2 d2 | %21
w: |||||||
 d2 c2 F2 G2 | A3 A D2 [A,DF]2 | [G,E]8 |] %24
w: |||
V:2
 [E,B,E]4 [F,B,D]3 [A,B,D] | [G,B,E]6 [G,B,]2 | [A,CE]2 [A,CE]2 [B,D]3 [B,D] | [E,B,F]4 [E,B,E]4 | %4
 [E,B,E]4 [C,F,]3 [E,F,] | [D,F,]6 [D,B,]2 | [E,G,]2 [C,C]2 [F,C]2 [F,C]2 | [B,,B,]8 | %8
 [E,B,E]4 [F,B,D]3 [A,B,D] | [G,B,E]6 [G,B,E]2 | [E,B,]2 [E,B,]2 [E,E]2 [E,=D]2 | %11
 [A,=DG]4 [A,CA]4 | [G,C^E]4[K:bass] [C,C]3 [C,C] | [F,CF]6 [G,B,^E]2 | %14
 [A,C]2 [F,CF]2 B,2[K:bass] B,,2 | [E,G,]8 | [E,B,E]2 [E,B,E]>[E,B,E] [E,B,E]2 [E,=DE]>[E,DE] | %17
 [A,=DE]2 [A,CE]2 [A,CE]4 | [F,CE]2 [F,CE]>[F,CE] [F,CE]2 [F,^A,E]2 | [B,,B,]8 | %20
 [G,DG]2 [G,DF]>[G,DF] [G,DF]2 [G,^B,F]2 | [G,^B,F]2[K:bass] [A,CE]2 [A,CE]2 [G,C]2 | %22
 [F,CE]3 [F,CE] B,2 B,,2 | E,8 |] %24

